images/4587968.svg

<?xml version="1.0" encoding="UTF-8"?>
<svg xmlns="http://www.w3.org/2000/svg" xmlns:xlink="http://www.w3.org/1999/xlink" width="300pt" height="300pt" viewBox="0 0 300 300" version="1.1">
<defs>
<g>
<symbol overflow="visible" id="glyph0-0">
<path style="stroke:none;" d="M 0.453125 1.59375 L 0.453125 -6.34375 L 4.953125 -6.34375 L 4.953125 1.59375 Z M 0.953125 1.09375 L 4.453125 1.09375 L 4.453125 -5.84375 L 0.953125 -5.84375 Z M 0.953125 1.09375 "/>
</symbol>
<symbol overflow="visible" id="glyph0-1">
<path style="stroke:none;" d="M 3.546875 -5.953125 C 2.898438 -5.953125 2.382812 -5.710938 2 -5.234375 C 1.625 -4.753906 1.4375 -4.101562 1.4375 -3.28125 C 1.4375 -2.445312 1.625 -1.789062 2 -1.3125 C 2.382812 -0.832031 2.898438 -0.59375 3.546875 -0.59375 C 4.191406 -0.59375 4.703125 -0.832031 5.078125 -1.3125 C 5.453125 -1.789062 5.640625 -2.445312 5.640625 -3.28125 C 5.640625 -4.101562 5.453125 -4.753906 5.078125 -5.234375 C 4.703125 -5.710938 4.191406 -5.953125 3.546875 -5.953125 Z M 3.546875 -6.6875 C 4.460938 -6.6875 5.195312 -6.375 5.75 -5.75 C 6.300781 -5.132812 6.578125 -4.3125 6.578125 -3.28125 C 6.578125 -2.238281 6.300781 -1.410156 5.75 -0.796875 C 5.195312 -0.179688 4.460938 0.125 3.546875 0.125 C 2.617188 0.125 1.878906 -0.179688 1.328125 -0.796875 C 0.773438 -1.410156 0.5 -2.238281 0.5 -3.28125 C 0.5 -4.3125 0.773438 -5.132812 1.328125 -5.75 C 1.878906 -6.375 2.617188 -6.6875 3.546875 -6.6875 Z M 3.546875 -6.6875 "/>
</symbol>
<symbol overflow="visible" id="glyph0-2">
<path style="stroke:none;" d="M 0.890625 -6.5625 L 1.765625 -6.5625 L 1.765625 -3.875 L 5 -3.875 L 5 -6.5625 L 5.890625 -6.5625 L 5.890625 0 L 5 0 L 5 -3.125 L 1.765625 -3.125 L 1.765625 0 L 0.890625 0 Z M 0.890625 -6.5625 "/>
</symbol>
</g>
</defs>
<g id="surface32093">
<rect x="0" y="0" width="300" height="300" style="fill:rgb(100%,100%,100%);fill-opacity:1;stroke:none;"/>
<path style="fill:none;stroke-width:1.2;stroke-linecap:butt;stroke-linejoin:miter;stroke:rgb(0%,0%,0%);stroke-opacity:1;stroke-miterlimit:10;" d="M 43.300781 118.269531 L 53.523438 135.019531 "/>
<path style="fill:none;stroke-width:1.2;stroke-linecap:butt;stroke-linejoin:miter;stroke:rgb(0%,0%,0%);stroke-opacity:1;stroke-miterlimit:10;" d="M 53.523438 135.019531 L 57.398438 154.257812 "/>
<path style="fill:none;stroke-width:1.2;stroke-linecap:butt;stroke-linejoin:miter;stroke:rgb(0%,0%,0%);stroke-opacity:1;stroke-miterlimit:10;" d="M 53.523438 135.019531 L 35.25 142.175781 "/>
<path style="fill:none;stroke-width:1.2;stroke-linecap:butt;stroke-linejoin:miter;stroke:rgb(100%,0%,0%);stroke-opacity:1;stroke-miterlimit:10;" d="M 68.246094 122.042969 L 60.882812 128.53125 "/>
<path style="fill:none;stroke-width:1.2;stroke-linecap:butt;stroke-linejoin:miter;stroke:rgb(0%,0%,0%);stroke-opacity:1;stroke-miterlimit:10;" d="M 60.882812 128.53125 L 53.523438 135.019531 "/>
<path style="fill:none;stroke-width:1.2;stroke-linecap:butt;stroke-linejoin:miter;stroke:rgb(0%,0%,0%);stroke-opacity:1;stroke-miterlimit:10;" d="M 57.398438 154.257812 L 75.996094 160.519531 "/>
<path style="fill:none;stroke-width:1.2;stroke-linecap:butt;stroke-linejoin:miter;stroke:rgb(0%,0%,0%);stroke-opacity:1;stroke-miterlimit:10;" d="M 60.730469 150.507812 L 75.609375 155.519531 "/>
<path style="fill:none;stroke-width:1.2;stroke-linecap:butt;stroke-linejoin:miter;stroke:rgb(0%,0%,0%);stroke-opacity:1;stroke-miterlimit:10;" d="M 75.996094 160.519531 L 90.71875 147.542969 "/>
<path style="fill:none;stroke-width:1.2;stroke-linecap:butt;stroke-linejoin:miter;stroke:rgb(0%,0%,0%);stroke-opacity:1;stroke-miterlimit:10;" d="M 90.71875 147.542969 L 86.84375 128.308594 "/>
<path style="fill:none;stroke-width:1.2;stroke-linecap:butt;stroke-linejoin:miter;stroke:rgb(0%,0%,0%);stroke-opacity:1;stroke-miterlimit:10;" d="M 94.859375 144.707031 L 91.757812 129.320312 "/>
<path style="fill:none;stroke-width:1.2;stroke-linecap:butt;stroke-linejoin:miter;stroke:rgb(0%,0%,0%);stroke-opacity:1;stroke-miterlimit:10;" d="M 109.316406 153.808594 L 90.71875 147.542969 "/>
<path style="fill:none;stroke-width:1.2;stroke-linecap:butt;stroke-linejoin:miter;stroke:rgb(0%,0%,0%);stroke-opacity:1;stroke-miterlimit:10;" d="M 86.84375 128.308594 L 77.542969 125.175781 "/>
<path style="fill:none;stroke-width:1.2;stroke-linecap:butt;stroke-linejoin:miter;stroke:rgb(100%,0%,0%);stroke-opacity:1;stroke-miterlimit:10;" d="M 77.542969 125.175781 L 68.246094 122.042969 "/>
<path style="fill:none;stroke-width:1.2;stroke-linecap:butt;stroke-linejoin:miter;stroke:rgb(0%,0%,0%);stroke-opacity:1;stroke-miterlimit:10;" d="M 86.84375 128.308594 L 101.566406 115.332031 "/>
<path style=" stroke:none;fill-rule:nonzero;fill:rgb(100%,100%,100%);fill-opacity:1;" d="M 64.246094 116.542969 L 72.246094 116.542969 L 72.246094 127.542969 L 64.246094 127.542969 Z M 64.246094 116.542969 "/>
<g style="fill:rgb(100%,0%,0%);fill-opacity:1;">
  <use xlink:href="#glyph0-1" x="64.246094" y="125.206055"/>
</g>
<path style="fill:none;stroke-width:1.2;stroke-linecap:butt;stroke-linejoin:miter;stroke:rgb(0%,0%,0%);stroke-opacity:1;stroke-miterlimit:10;" d="M 101.566406 115.332031 L 120.164062 121.59375 "/>
<path style="fill:none;stroke-width:1.2;stroke-linecap:butt;stroke-linejoin:miter;stroke:rgb(0%,0%,0%);stroke-opacity:1;stroke-miterlimit:10;" d="M 101.953125 120.332031 L 116.832031 125.34375 "/>
<path style="fill:none;stroke-width:1.2;stroke-linecap:butt;stroke-linejoin:miter;stroke:rgb(0%,0%,0%);stroke-opacity:1;stroke-miterlimit:10;" d="M 120.164062 121.59375 L 124.039062 140.832031 "/>
<path style="fill:none;stroke-width:1.2;stroke-linecap:butt;stroke-linejoin:miter;stroke:rgb(0%,0%,0%);stroke-opacity:1;stroke-miterlimit:10;" d="M 124.039062 140.832031 L 109.316406 153.808594 "/>
<path style="fill:none;stroke-width:1.2;stroke-linecap:butt;stroke-linejoin:miter;stroke:rgb(0%,0%,0%);stroke-opacity:1;stroke-miterlimit:10;" d="M 119.515625 138.664062 L 107.738281 149.046875 "/>
<path style="fill:none;stroke-width:1.2;stroke-linecap:butt;stroke-linejoin:miter;stroke:rgb(0%,0%,0%);stroke-opacity:1;stroke-miterlimit:10;" d="M 124.039062 140.832031 L 142.640625 147.09375 "/>
<path style="fill:none;stroke-width:1.2;stroke-linecap:butt;stroke-linejoin:miter;stroke:rgb(0%,0%,0%);stroke-opacity:1;stroke-miterlimit:10;" d="M 109.316406 153.808594 L 111.253906 163.425781 "/>
<path style="fill:none;stroke-width:1.2;stroke-linecap:butt;stroke-linejoin:miter;stroke:rgb(100%,0%,0%);stroke-opacity:1;stroke-miterlimit:10;" d="M 111.253906 163.425781 L 113.195312 173.046875 "/>
<path style="fill:none;stroke-width:1.2;stroke-linecap:butt;stroke-linejoin:miter;stroke:rgb(100%,0%,0%);stroke-opacity:1;stroke-miterlimit:10;" d="M 113.195312 173.046875 L 105.832031 179.53125 "/>
<path style="fill:none;stroke-width:1.2;stroke-linecap:butt;stroke-linejoin:miter;stroke:rgb(0%,0%,0%);stroke-opacity:1;stroke-miterlimit:10;" d="M 105.832031 179.53125 L 98.472656 186.019531 "/>
<path style=" stroke:none;fill-rule:nonzero;fill:rgb(100%,100%,100%);fill-opacity:1;" d="M 109.195312 167.546875 L 117.195312 167.546875 L 117.195312 178.546875 L 109.195312 178.546875 Z M 109.195312 167.546875 "/>
<g style="fill:rgb(100%,0%,0%);fill-opacity:1;">
  <use xlink:href="#glyph0-1" x="109.195312" y="176.209961"/>
</g>
<path style="fill:none;stroke-width:1.2;stroke-linecap:butt;stroke-linejoin:miter;stroke:rgb(0%,0%,0%);stroke-opacity:1;stroke-miterlimit:10;" d="M 142.640625 147.09375 L 146.515625 166.332031 "/>
<path style="fill:none;stroke-width:1.2;stroke-linecap:butt;stroke-linejoin:miter;stroke:rgb(0%,0%,0%);stroke-opacity:1;stroke-miterlimit:10;" d="M 147.554688 148.105469 L 150.652344 163.496094 "/>
<path style="fill:none;stroke-width:1.2;stroke-linecap:butt;stroke-linejoin:miter;stroke:rgb(0%,0%,0%);stroke-opacity:1;stroke-miterlimit:10;" d="M 157.359375 134.117188 L 142.640625 147.09375 "/>
<path style="fill:none;stroke-width:1.2;stroke-linecap:butt;stroke-linejoin:miter;stroke:rgb(0%,0%,0%);stroke-opacity:1;stroke-miterlimit:10;" d="M 146.515625 166.332031 L 155.8125 169.464844 "/>
<path style="fill:none;stroke-width:1.2;stroke-linecap:butt;stroke-linejoin:miter;stroke:rgb(100%,0%,0%);stroke-opacity:1;stroke-miterlimit:10;" d="M 155.8125 169.464844 L 165.113281 172.59375 "/>
<path style="fill:none;stroke-width:1.2;stroke-linecap:butt;stroke-linejoin:miter;stroke:rgb(100%,0%,0%);stroke-opacity:1;stroke-miterlimit:10;" d="M 165.113281 172.59375 L 172.472656 166.105469 "/>
<path style="fill:none;stroke-width:1.2;stroke-linecap:butt;stroke-linejoin:miter;stroke:rgb(0%,0%,0%);stroke-opacity:1;stroke-miterlimit:10;" d="M 172.472656 166.105469 L 179.835938 159.617188 "/>
<path style=" stroke:none;fill-rule:nonzero;fill:rgb(100%,100%,100%);fill-opacity:1;" d="M 161.113281 167.09375 L 169.113281 167.09375 L 169.113281 178.09375 L 161.113281 178.09375 Z M 161.113281 167.09375 "/>
<g style="fill:rgb(100%,0%,0%);fill-opacity:1;">
  <use xlink:href="#glyph0-1" x="161.113281" y="175.756836"/>
</g>
<path style="fill:none;stroke-width:1.2;stroke-linecap:butt;stroke-linejoin:miter;stroke:rgb(0%,0%,0%);stroke-opacity:1;stroke-miterlimit:10;" d="M 179.835938 159.617188 L 198.433594 165.882812 "/>
<path style="fill:none;stroke-width:1.2;stroke-linecap:butt;stroke-linejoin:miter;stroke:rgb(0%,0%,0%);stroke-opacity:1;stroke-miterlimit:10;" d="M 183.167969 155.867188 L 198.046875 160.878906 "/>
<path style="fill:none;stroke-width:1.2;stroke-linecap:butt;stroke-linejoin:miter;stroke:rgb(0%,0%,0%);stroke-opacity:1;stroke-miterlimit:10;" d="M 175.960938 140.382812 L 179.835938 159.617188 "/>
<path style="fill:none;stroke-width:1.2;stroke-linecap:butt;stroke-linejoin:miter;stroke:rgb(0%,0%,0%);stroke-opacity:1;stroke-miterlimit:10;" d="M 198.433594 165.882812 L 213.15625 152.90625 "/>
<path style="fill:none;stroke-width:1.2;stroke-linecap:butt;stroke-linejoin:miter;stroke:rgb(0%,0%,0%);stroke-opacity:1;stroke-miterlimit:10;" d="M 213.15625 152.90625 L 209.28125 133.667969 "/>
<path style="fill:none;stroke-width:1.2;stroke-linecap:butt;stroke-linejoin:miter;stroke:rgb(0%,0%,0%);stroke-opacity:1;stroke-miterlimit:10;" d="M 217.296875 150.070312 L 214.195312 134.679688 "/>
<path style="fill:none;stroke-width:1.2;stroke-linecap:butt;stroke-linejoin:miter;stroke:rgb(100%,0%,0%);stroke-opacity:1;stroke-miterlimit:10;" d="M 231.753906 159.167969 L 222.457031 156.039062 "/>
<path style="fill:none;stroke-width:1.2;stroke-linecap:butt;stroke-linejoin:miter;stroke:rgb(0%,0%,0%);stroke-opacity:1;stroke-miterlimit:10;" d="M 222.457031 156.039062 L 213.15625 152.90625 "/>
<path style="fill:none;stroke-width:1.2;stroke-linecap:butt;stroke-linejoin:miter;stroke:rgb(0%,0%,0%);stroke-opacity:1;stroke-miterlimit:10;" d="M 209.28125 133.667969 L 224.003906 120.691406 "/>
<path style="fill:none;stroke-width:1.2;stroke-linecap:butt;stroke-linejoin:miter;stroke:rgb(0%,0%,0%);stroke-opacity:1;stroke-miterlimit:10;" d="M 209.28125 133.667969 L 190.683594 127.40625 "/>
<path style="fill:none;stroke-width:1.2;stroke-linecap:butt;stroke-linejoin:miter;stroke:rgb(0%,0%,0%);stroke-opacity:1;stroke-miterlimit:10;" d="M 224.003906 120.691406 L 242.601562 126.953125 "/>
<path style="fill:none;stroke-width:1.2;stroke-linecap:butt;stroke-linejoin:miter;stroke:rgb(0%,0%,0%);stroke-opacity:1;stroke-miterlimit:10;" d="M 242.601562 126.953125 L 246.476562 146.191406 "/>
<path style="fill:none;stroke-width:1.2;stroke-linecap:butt;stroke-linejoin:miter;stroke:rgb(0%,0%,0%);stroke-opacity:1;stroke-miterlimit:10;" d="M 242.601562 126.953125 L 249.964844 120.46875 "/>
<path style="fill:none;stroke-width:1.2;stroke-linecap:butt;stroke-linejoin:miter;stroke:rgb(100%,0%,0%);stroke-opacity:1;stroke-miterlimit:10;" d="M 249.964844 120.46875 L 257.324219 113.980469 "/>
<path style="fill:none;stroke-width:1.2;stroke-linecap:butt;stroke-linejoin:miter;stroke:rgb(0%,0%,0%);stroke-opacity:1;stroke-miterlimit:10;" d="M 246.476562 146.191406 L 239.117188 152.679688 "/>
<path style="fill:none;stroke-width:1.2;stroke-linecap:butt;stroke-linejoin:miter;stroke:rgb(100%,0%,0%);stroke-opacity:1;stroke-miterlimit:10;" d="M 239.117188 152.679688 L 231.753906 159.167969 "/>
<path style="fill:none;stroke-width:1.2;stroke-linecap:butt;stroke-linejoin:miter;stroke:rgb(0%,0%,0%);stroke-opacity:1;stroke-miterlimit:10;" d="M 246.476562 146.191406 L 256.699219 162.945312 "/>
<path style="fill:none;stroke-width:1.2;stroke-linecap:butt;stroke-linejoin:miter;stroke:rgb(0%,0%,0%);stroke-opacity:1;stroke-miterlimit:10;" d="M 246.476562 146.191406 L 264.75 139.035156 "/>
<path style=" stroke:none;fill-rule:nonzero;fill:rgb(100%,100%,100%);fill-opacity:1;" d="M 227.753906 153.667969 L 235.753906 153.667969 L 235.753906 164.667969 L 227.753906 164.667969 Z M 227.753906 153.667969 "/>
<g style="fill:rgb(100%,0%,0%);fill-opacity:1;">
  <use xlink:href="#glyph0-1" x="227.753906" y="162.331055"/>
</g>
<path style=" stroke:none;fill-rule:nonzero;fill:rgb(100%,100%,100%);fill-opacity:1;" d="M 250.324219 108.480469 L 265.324219 108.480469 L 265.324219 119.480469 L 250.324219 119.480469 Z M 250.324219 108.480469 "/>
<g style="fill:rgb(100%,0%,0%);fill-opacity:1;">
  <use xlink:href="#glyph0-1" x="250.324219" y="117.143555"/>
  <use xlink:href="#glyph0-2" x="257.666016" y="117.143555"/>
</g>
<path style="fill:none;stroke-width:1.2;stroke-linecap:butt;stroke-linejoin:miter;stroke:rgb(0%,0%,0%);stroke-opacity:1;stroke-miterlimit:10;" d="M 190.683594 127.40625 L 175.960938 140.382812 "/>
<path style="fill:none;stroke-width:1.2;stroke-linecap:butt;stroke-linejoin:miter;stroke:rgb(0%,0%,0%);stroke-opacity:1;stroke-miterlimit:10;" d="M 192.261719 132.167969 L 180.484375 142.546875 "/>
<path style="fill:none;stroke-width:1.2;stroke-linecap:butt;stroke-linejoin:miter;stroke:rgb(0%,0%,0%);stroke-opacity:1;stroke-miterlimit:10;" d="M 175.960938 140.382812 L 157.359375 134.117188 "/>
<path style="fill:none;stroke-width:1.2;stroke-linecap:butt;stroke-linejoin:miter;stroke:rgb(0%,0%,0%);stroke-opacity:1;stroke-miterlimit:10;" d="M 159.625 133.664062 L 157.6875 124.042969 "/>
<path style="fill:none;stroke-width:1.2;stroke-linecap:butt;stroke-linejoin:miter;stroke:rgb(100%,0%,0%);stroke-opacity:1;stroke-miterlimit:10;" d="M 157.6875 124.042969 L 155.75 114.425781 "/>
<path style="fill:none;stroke-width:1.2;stroke-linecap:butt;stroke-linejoin:miter;stroke:rgb(0%,0%,0%);stroke-opacity:1;stroke-miterlimit:10;" d="M 155.097656 134.574219 L 153.160156 124.957031 "/>
<path style="fill:none;stroke-width:1.2;stroke-linecap:butt;stroke-linejoin:miter;stroke:rgb(100%,0%,0%);stroke-opacity:1;stroke-miterlimit:10;" d="M 153.160156 124.957031 L 151.222656 115.335938 "/>
<path style=" stroke:none;fill-rule:nonzero;fill:rgb(100%,100%,100%);fill-opacity:1;" d="M 149.484375 109.378906 L 157.484375 109.378906 L 157.484375 120.378906 L 149.484375 120.378906 Z M 149.484375 109.378906 "/>
<g style="fill:rgb(100%,0%,0%);fill-opacity:1;">
  <use xlink:href="#glyph0-1" x="149.484375" y="118.041992"/>
</g>
</g>
</svg>

<svg xmlns="http://www.w3.org/2000/svg" xmlns:xlink="http://www.w3.org/1999/xlink" width="300pt" height="300pt" viewBox="0 0 300 300"><defs><symbol overflow="visible"><path d="M.453 1.594v-7.938h4.5v7.938zm.5-.5h3.5v-6.938h-3.5zm0 0"/></symbol><symbol overflow="visible" id="a"><path d="M3.547-5.953c-.65 0-1.164.242-1.547.72-.375.48-.563 1.13-.563 1.952 0 .835.188 1.49.563 1.967.383.48.898.72 1.547.72.644 0 1.156-.24 1.53-.72.376-.476.564-1.132.564-1.968 0-.822-.187-1.474-.562-1.954-.375-.477-.887-.72-1.53-.72zm0-.734c.914 0 1.648.312 2.203.937.55.617.828 1.438.828 2.47 0 1.042-.277 1.87-.828 2.483-.555.617-1.29.922-2.203.922-.93 0-1.668-.305-2.22-.922C.774-1.41.5-2.237.5-3.28c0-1.033.273-1.853.828-2.47.55-.625 1.29-.938 2.22-.938zm0 0"/></symbol><symbol overflow="visible" id="b"><path d="M.89-6.563h.876v2.688H5v-2.688h.89V0H5v-3.125H1.766V0H.89zm0 0"/></symbol></defs><g><path fill="#fff" d="M0 0h300v300H0z"/><path d="M43.3 118.27l10.223 16.75M53.523 135.02l3.875 19.238M53.523 135.02l-18.273 7.156" stroke-width="1.2" stroke="#000" stroke-miterlimit="10" fill="none"/><path d="M68.246 122.043l-7.363 6.488" stroke-width="1.2" stroke="#f00" stroke-miterlimit="10" fill="none"/><path d="M60.883 128.53l-7.36 6.49M57.398 154.258l18.598 6.262M60.73 150.508l14.88 5.012M75.996 160.52l14.723-12.977M90.72 147.543l-3.876-19.234M94.86 144.707l-3.102-15.387M109.316 153.81l-18.597-6.267M86.844 128.31l-9.3-3.134" stroke-width="1.2" stroke="#000" stroke-miterlimit="10" fill="none"/><path d="M77.543 125.176l-9.297-3.133" stroke-width="1.2" stroke="#f00" stroke-miterlimit="10" fill="none"/><path d="M86.844 128.31l14.722-12.978" stroke-width="1.2" stroke="#000" stroke-miterlimit="10" fill="none"/><path d="M64.246 116.543h8v11h-8zm0 0" fill="#fff"/><use xlink:href="#a" x="64.246" y="125.206" fill="#f00"/><path d="M101.566 115.332l18.598 6.262M101.953 120.332l14.88 5.012M120.164 121.594l3.875 19.238M124.04 140.832l-14.724 12.977M119.516 138.664l-11.778 10.383M124.04 140.832l18.6 6.262M109.316 153.81l1.938 9.616" stroke-width="1.2" stroke="#000" stroke-miterlimit="10" fill="none"/><path d="M111.254 163.426l1.94 9.62M113.195 173.047l-7.363 6.484" stroke-width="1.2" stroke="#f00" stroke-miterlimit="10" fill="none"/><path d="M105.832 179.53l-7.36 6.49" stroke-width="1.2" stroke="#000" stroke-miterlimit="10" fill="none"/><path d="M109.195 167.547h8v11h-8zm0 0" fill="#fff"/><use xlink:href="#a" x="109.195" y="176.21" fill="#f00"/><path d="M142.64 147.094l3.876 19.238M147.555 148.105l3.097 15.39M157.36 134.117l-14.72 12.977M146.516 166.332l9.297 3.133" stroke-width="1.2" stroke="#000" stroke-miterlimit="10" fill="none"/><path d="M155.813 169.465l9.3 3.13M165.113 172.594l7.36-6.49" stroke-width="1.2" stroke="#f00" stroke-miterlimit="10" fill="none"/><path d="M172.473 166.105l7.363-6.488" stroke-width="1.2" stroke="#000" stroke-miterlimit="10" fill="none"/><path d="M161.113 167.094h8v11h-8zm0 0" fill="#fff"/><use xlink:href="#a" x="161.113" y="175.757" fill="#f00"/><path d="M179.836 159.617l18.598 6.266M183.168 155.867l14.88 5.012M175.96 140.383l3.876 19.234M198.434 165.883l14.722-12.977M213.156 152.906l-3.875-19.238M217.297 150.07l-3.102-15.39" stroke-width="1.2" stroke="#000" stroke-miterlimit="10" fill="none"/><path d="M231.754 159.168l-9.297-3.13" stroke-width="1.2" stroke="#f00" stroke-miterlimit="10" fill="none"/><path d="M222.457 156.04l-9.3-3.134M209.28 133.668l14.724-12.977M209.28 133.668l-18.596-6.262M224.004 120.69l18.598 6.263M242.602 126.953l3.875 19.238M242.602 126.953l7.363-6.484" stroke-width="1.2" stroke="#000" stroke-miterlimit="10" fill="none"/><path d="M249.965 120.47l7.36-6.49" stroke-width="1.2" stroke="#f00" stroke-miterlimit="10" fill="none"/><path d="M246.477 146.19l-7.36 6.49" stroke-width="1.2" stroke="#000" stroke-miterlimit="10" fill="none"/><path d="M239.117 152.68l-7.363 6.488" stroke-width="1.2" stroke="#f00" stroke-miterlimit="10" fill="none"/><path d="M246.477 146.19l10.222 16.755M246.477 146.19l18.273-7.155" stroke-width="1.2" stroke="#000" stroke-miterlimit="10" fill="none"/><path d="M227.754 153.668h8v11h-8zm0 0" fill="#fff"/><use xlink:href="#a" x="227.754" y="162.331" fill="#f00"/><path d="M250.324 108.48h15v11h-15zm0 0" fill="#fff"/><g fill="#f00"><use xlink:href="#a" x="250.324" y="117.144"/><use xlink:href="#b" x="257.666" y="117.144"/></g><path d="M190.684 127.406l-14.723 12.977M192.262 132.168l-11.778 10.38M175.96 140.383l-18.6-6.266M159.625 133.664l-1.938-9.62" stroke-width="1.2" stroke="#000" stroke-miterlimit="10" fill="none"/><path d="M157.688 124.043l-1.938-9.617" stroke-width="1.2" stroke="#f00" stroke-miterlimit="10" fill="none"/><path d="M155.098 134.574l-1.938-9.617" stroke-width="1.2" stroke="#000" stroke-miterlimit="10" fill="none"/><path d="M153.16 124.957l-1.937-9.62" stroke-width="1.2" stroke="#f00" stroke-miterlimit="10" fill="none"/><path d="M149.484 109.38h8v11h-8zm0 0" fill="#fff"/><use xlink:href="#a" x="149.484" y="118.042" fill="#f00"/></g></svg>
